public/img/top/tex-7.svg

<svg fill="none" height="130" viewBox="0 0 120 130" width="120" xmlns="http://www.w3.org/2000/svg" xmlns:xlink="http://www.w3.org/1999/xlink"><filter id="a" color-interpolation-filters="sRGB" filterUnits="userSpaceOnUse" height="123.584" width="111.572" x="1.73776" y="5.8519"><feFlood flood-opacity="0" result="BackgroundImageFix"/><feColorMatrix in="SourceAlpha" result="hardAlpha" type="matrix" values="0 0 0 0 0 0 0 0 0 0 0 0 0 0 0 0 0 0 127 0"/><feOffset dx="-3.97215" dy="4.63417"/><feGaussianBlur stdDeviation="3.64114"/><feColorMatrix type="matrix" values="0 0 0 0 0.316369 0 0 0 0 0.366988 0 0 0 0 0.353496 0 0 0 0.25741 0"/><feBlend in2="BackgroundImageFix" mode="normal" result="effect1_dropShadow_555_991"/><feColorMatrix in="SourceAlpha" result="hardAlpha" type="matrix" values="0 0 0 0 0 0 0 0 0 0 0 0 0 0 0 0 0 0 127 0"/><feOffset dx="-1.98607" dy="1.98607"/><feGaussianBlur stdDeviation="1.65506"/><feColorMatrix type="matrix" values="0 0 0 0 0 0 0 0 0 0 0 0 0 0 0 0 0 0 0.144615 0"/><feBlend in2="effect1_dropShadow_555_991" mode="normal" result="effect2_dropShadow_555_991"/><feBlend in="SourceGraphic" in2="effect2_dropShadow_555_991" mode="normal" result="shape"/></filter><path clip-rule="evenodd" d="m58.504 12.4814 48.504 27.2548v54.5094l-48.504 27.2544-48.504-27.2544v-54.5094z" fill-rule="evenodd" stroke="#00e599"/><g filter="url(#a)"><path d="m61.4962 8.5 48.5038 27.2547v54.5094l-48.5038 27.2549-48.504-27.2549v-54.5094z" fill="#000"/></g><path d="m61.4962 8.5 48.5038 27.2547v54.5094l-48.5038 27.2549-48.504-27.2549v-54.5094z" fill="#f0f5f6"/><g stroke="#003"><path clip-rule="evenodd" d="m61.9909 42.3871 17.5078 9.5718c.4709.2575.7625.7423.7625 1.2681v19.0753c0 .5257-.2916 1.0106-.7625 1.268l-17.5078 9.5719c-.4545.2485-1.0093.2485-1.4638 0l-17.5078-9.5719c-.4709-.2574-.7625-.7423-.7625-1.268v-19.0753c0-.5258.2916-1.0106.7625-1.2681l17.5078-9.5718c.4545-.2485 1.0093-.2485 1.4638 0z" fill="#fff" fill-rule="evenodd" stroke-width=".36226"/><path d="m61.5557 82.9657v-19.6234" stroke-linecap="round" stroke-width=".36226"/><path d="m42.5791 53.5303 18.9767 9.8117" stroke-linecap="round" stroke-width=".36226"/><path d="m79.9403 53.5303-18.453 9.5409" stroke-linecap="round" stroke-width=".36226"/><path clip-rule="evenodd" d="m65.6869 52.5897-4.1236 2.1386c-.1746.0906-.3841.0904-.5586-.0004l-4.1083-2.1386c-.2888-.1504-.3976-.5001-.2432-.7812.0521-.0948.1304-.1736.2261-.2274l4.1083-2.3123c.1834-.1032.4094-.1033.5929-.0004l4.1235 2.3122c.2838.1592.3813.5121.2178.7883-.0554.0937-.1369.1703-.2349.2212z" fill="#00e599" fill-rule="evenodd" stroke-width=".331012"/></g></svg>

<svg width="120" height="130" viewBox="0 0 120 130" fill="none" xmlns="http://www.w3.org/2000/svg">
<path fill-rule="evenodd" clip-rule="evenodd" d="M58.504 12.4814L107.008 39.7362V94.2456L58.504 121.5L10 94.2456V39.7362L58.504 12.4814Z" stroke="#00E599"/>
<g filter="url(#filter0_dd_555_991)">
<path d="M61.4962 8.5L110 35.7547V90.2641L61.4962 117.519L12.9922 90.2641V35.7547L61.4962 8.5Z" fill="black"/>
</g>
<path d="M61.4962 8.5L110 35.7547V90.2641L61.4962 117.519L12.9922 90.2641V35.7547L61.4962 8.5Z" fill="#F0F5F6"/>
<path fill-rule="evenodd" clip-rule="evenodd" d="M61.9909 42.3871L79.4987 51.9589C79.9696 52.2164 80.2612 52.7012 80.2612 53.227V72.3023C80.2612 72.828 79.9696 73.3129 79.4987 73.5703L61.9909 83.1422C61.5364 83.3907 60.9816 83.3907 60.5271 83.1422L43.0193 73.5703C42.5484 73.3129 42.2568 72.828 42.2568 72.3023V53.227C42.2568 52.7012 42.5484 52.2164 43.0193 51.9589L60.5271 42.3871C60.9816 42.1386 61.5364 42.1386 61.9909 42.3871Z" fill="white" stroke="#000033" stroke-width="0.36226"/>
<path d="M61.5557 82.9657V63.3423" stroke="#000033" stroke-width="0.36226" stroke-linecap="round"/>
<path d="M42.5791 53.5303L61.5558 63.342" stroke="#000033" stroke-width="0.36226" stroke-linecap="round"/>
<path d="M79.9403 53.5303L61.4873 63.0712" stroke="#000033" stroke-width="0.36226" stroke-linecap="round"/>
<path fill-rule="evenodd" clip-rule="evenodd" d="M65.6869 52.5897L61.5633 54.7283C61.3887 54.8189 61.1792 54.8187 61.0047 54.7279L56.8964 52.5893C56.6076 52.4389 56.4988 52.0892 56.6532 51.8081C56.7053 51.7133 56.7836 51.6345 56.8793 51.5807L60.9876 49.2684C61.171 49.1652 61.397 49.1651 61.5805 49.268L65.704 51.5802C65.9878 51.7394 66.0853 52.0923 65.9218 52.3685C65.8664 52.4622 65.7849 52.5388 65.6869 52.5897Z" fill="#00E599" stroke="#000033" stroke-width="0.331012"/>
<defs>
<filter id="filter0_dd_555_991" x="1.73776" y="5.8519" width="111.572" height="123.584" filterUnits="userSpaceOnUse" color-interpolation-filters="sRGB">
<feFlood flood-opacity="0" result="BackgroundImageFix"/>
<feColorMatrix in="SourceAlpha" type="matrix" values="0 0 0 0 0 0 0 0 0 0 0 0 0 0 0 0 0 0 127 0" result="hardAlpha"/>
<feOffset dx="-3.97215" dy="4.63417"/>
<feGaussianBlur stdDeviation="3.64114"/>
<feColorMatrix type="matrix" values="0 0 0 0 0.316369 0 0 0 0 0.366988 0 0 0 0 0.353496 0 0 0 0.25741 0"/>
<feBlend mode="normal" in2="BackgroundImageFix" result="effect1_dropShadow_555_991"/>
<feColorMatrix in="SourceAlpha" type="matrix" values="0 0 0 0 0 0 0 0 0 0 0 0 0 0 0 0 0 0 127 0" result="hardAlpha"/>
<feOffset dx="-1.98607" dy="1.98607"/>
<feGaussianBlur stdDeviation="1.65506"/>
<feColorMatrix type="matrix" values="0 0 0 0 0 0 0 0 0 0 0 0 0 0 0 0 0 0 0.144615 0"/>
<feBlend mode="normal" in2="effect1_dropShadow_555_991" result="effect2_dropShadow_555_991"/>
<feBlend mode="normal" in="SourceGraphic" in2="effect2_dropShadow_555_991" result="shape"/>
</filter>
</defs>
</svg>
